X:1
T:From All That Dwell Below the Skies
T:Text: Isaac Watts (1674-1748) Tune: John Hatton (1710-1793)
T:88 88 DUKE STREET www.hymnary.org/text/from_all_that_dwell_below_the_skies
T:From All That Dwell Below the Skies
T:This hymn is in the public domain.  You may freely use this score for personal and congregational worship.  If you reproduce the score, please credit Hymnary.org as the source. 
T:This hymn is in the public domain.  You may freely use this score for personal and congregational worship.  If you reproduce the score, please credit Hymnary.org as the source. 
Z:This hymn is in the public domain.  You may freely use this score for personal and congregational worship.  If you reproduce the score, please credit Hymnary.org as the source.
%%score ( 1 2 ) ( 3 4 )
L:1/8
M:2/2
K:C
V:1 treble nm="Piano" snm="Pno."
V:2 treble 
V:3 bass nm="Piano" snm="Pno."
V:4 bass 
V:1
 C4 [CE]2 [B,F]2 | [CG]4 (([CA]2 [DB]2)) | [Ec]4 (([DB]2 [CA]2)) | [B,G]8 | [CG]4 [CG]2 [CG]2 | %5
w: 1~From all that|dwell be- *|low the _|skies,|Let the Cre-|
w: 2~E- ter- nal|are thy _|mer- cies, _|Lord;|E- ter- nal|
 [CA]4 G4 | F4 [CE]4 | [B,D]8 | [CE]4 [CE]2 [G,D]2 | (([G,C]2 [CE]2)) (G2 c2) | (A2 G2) | %11
w: a- tor's|praise a-|rise;|Let the Re-|dee- * mer's _|name _|
w: truth at-|tends Thy|word;|Thy praise shall|sound _ from _|shore _|
 (([B,F]2 [CE]2)) | [B,D]8 | [CG]4 [CA]2 [DB]2 | c6 [DF]2 | [CE]4 [B,D]4 | [CC]8 |] %17
w: be _|sung|Through ev- ery|land, by|ev- ery|tongue.|
w: to _|shore,|Till suns shall|rise and|set no|more.|
V:2
 C4 x4 | x8 | x8 | x8 | x8 | x4 (C2 G,2) | (A,2 B,2) x4 | x8 | x8 | x4 C4 | C4 | x4 | x8 | x8 | %14
 (E3 D C2) x2 | x8 | x8 |] %17
V:3
 [C,E,]4 [C,G,]2 [D,G,]2 | [E,G,]4 F,4 | (E,2 G,2) (G,2 ^F,2) | [G,,G,]8 | %4
 [C,E,]4 [C,E,]2 [E,G,]2 | F,4 (G,2 E,2) | (F,2 G,2) [C,G,]4 | [G,,G,]8 | %8
 [C,G,]4 [C,G,]2 [B,,F,]2 | (E,2 G,2) [E,G,]4 | (([F,A,]2 [E,C]2)) | G,4 | [G,,G,]8 | %13
 [E,G,]4 F,2 [D,F,]2 | (([C,E,]3 [D,F,] [E,G,]2)) [F,A,]2 | G,4 (G,2 F,2) | [C,E,]8 |] %17
V:4
 x8 | x4 (F,2 D,2) | C,4 D,4 | x8 | x8 | F,4 E,4 | D,4 x4 | x8 | x8 | C,4 x4 | x4 | D,2 C,2 | x8 | %13
 x4 F,2 x2 | x8 | G,4 G,,4 | x8 |] %17

